public/svgs/aboutus/letter1.svg

<svg width="74" height="74" viewBox="0 0 74 74" fill="none" xmlns="http://www.w3.org/2000/svg">
<g filter="url(#filter0_d_3628_1468)">
<path d="M9.00837 29.18L7.89968 30.856L7.78783 31.0255C7.62844 31.2666 7.65348 31.5837 7.84571 31.7961C7.8514 31.8024 7.85712 31.8087 7.8638 31.8142L8.00597 31.9601C8.47744 32.4418 8.95017 32.9136 9.40722 33.3699C10.3933 34.3565 11.3255 35.2873 12.2171 36.2691C17.087 41.6352 21.9078 46.9621 25.5638 51.0032C27.4442 53.0817 29.3246 55.1603 31.205 57.2388L31.3786 57.4307L31.4668 57.5281C33.3748 59.639 35.2838 61.7492 37.1927 63.8592L38.1559 64.9239C38.2016 64.9744 38.2466 65.026 38.2915 65.0776C38.3446 65.14 38.3976 65.2005 38.4513 65.2598C38.606 65.4309 38.7367 65.5564 38.8743 65.6673C39.2411 65.9619 39.6648 66.0751 40.0683 65.9854C40.3062 65.9327 40.7501 65.7543 41.043 65.1573C41.1935 64.8501 41.28 64.5117 41.2872 64.2038C41.2937 63.9236 41.3007 63.6437 41.3075 63.3637C41.3382 62.1048 41.3706 60.8025 41.3516 59.515C41.3449 59.0847 41.292 58.5922 40.9448 58.2084C40.549 57.7708 39.9804 57.7099 39.4768 57.7076C38.6318 57.7038 37.7235 57.7184 36.8074 57.8501C36.308 57.922 36.0501 57.8267 35.7027 57.4427L35.6754 57.4108C34.6753 56.2771 33.6075 55.0836 32.215 53.5444C31.5589 52.8192 30.9019 52.0948 30.2441 51.3715L30.2366 51.3632L30.2291 51.3549C29.6402 50.7059 29.0505 50.0578 28.4626 49.4079C28.8523 49.3087 29.2445 49.2104 29.6269 49.1145C30.7327 48.8371 31.8704 48.5519 32.9868 48.2355C38.913 46.5533 44.561 44.3003 49.7818 42.1164L49.9246 42.0562C50.8523 41.6647 51.1074 41.6103 51.4794 41.9802C52.0117 42.5103 52.9593 42.4284 53.4311 42.2527C53.909 42.0743 54.2258 41.6916 54.3229 41.1751C54.3883 40.8245 54.339 40.49 54.3125 40.3103C54.2327 39.7749 54.128 39.3454 53.9815 38.9598C53.5515 37.8287 53.085 36.6947 52.6733 35.6946C52.5858 35.4833 52.4727 35.3095 52.3721 35.1569C52.3322 35.0958 52.2952 35.038 52.2599 34.9803L52.128 34.7612C52.1068 34.7264 52.0825 34.694 52.0555 34.6641C51.9709 34.5706 51.8595 34.5039 51.7354 34.4737C51.571 34.4348 51.3976 34.4631 51.2551 34.5518L51.0377 34.6873C50.7486 34.8676 50.4691 35.0454 50.1994 35.217C49.633 35.5775 49.0979 35.9182 48.5528 36.2309C41.9463 40.0233 34.6927 43.386 26.3779 46.5117C26.0073 46.6507 25.9424 46.6485 25.6397 46.3139L25.626 46.2987C23.7793 44.235 21.9322 42.1914 20.1987 40.2752L19.4252 39.4203L18.6519 38.5654C17.1629 36.9196 15.4338 35.0064 13.7519 33.1304C13.0839 32.3846 12.4425 31.5741 11.822 30.7905C11.5181 30.4057 11.204 30.0077 10.8865 29.6192C10.8369 29.5569 10.7838 29.4963 10.7159 29.4213C10.6744 29.3753 10.6304 29.3267 10.5812 29.2743C10.5261 29.2152 10.4669 29.1497 10.3989 29.0746L10.1809 28.8336C10.0502 28.6892 9.85956 28.6137 9.66542 28.6284C9.47125 28.643 9.2947 28.7467 9.18697 28.9095L9.00837 29.18Z" fill="black"/>
<path d="M34.5907 10.01L34.3954 10.311L33.4579 11.7571L33.3463 11.9287C33.1901 12.1695 33.2172 12.4833 33.4079 12.694C33.4149 12.7018 33.4219 12.7096 33.429 12.7174L33.5732 12.8617C33.857 13.1454 34.1374 13.4177 34.4073 13.6822C34.9706 14.2316 35.5018 14.7493 35.9943 15.2917C41.0795 20.9015 46.1888 26.5491 50.5791 31.4019L53.2378 34.3407L55.8967 37.2797C57.1289 38.6418 58.3611 40.0038 59.5943 41.365C59.6431 41.419 59.6901 41.4728 59.7371 41.5267C59.7891 41.5841 59.8401 41.6424 59.8919 41.6997C60.0414 41.8649 60.2231 42.0582 60.4392 42.2388C61.0727 42.7699 61.6161 42.7598 61.9616 42.6569C62.313 42.5529 62.7863 42.2531 63.042 41.4175C63.1394 41.0968 63.1842 40.8098 63.1784 40.5404C63.1736 40.2945 63.1681 40.0498 63.1635 39.8041L63.1631 39.7944C63.143 38.7366 63.1214 37.6435 63.0536 36.5632C63.0272 36.1488 62.9718 35.674 62.6325 35.299C62.2382 34.8632 61.6833 34.8079 61.1954 34.7892C60.2839 34.7551 59.3954 34.7708 58.5536 34.8363C58.1927 34.864 58.0327 34.8037 57.8091 34.5565L57.7941 34.54C56.5519 33.1387 55.332 31.7865 54.3026 30.6487C53.8476 30.1457 53.3926 29.6428 52.9365 29.1405L52.9218 29.1242L52.9072 29.1081C52.4525 28.6054 51.9968 28.1037 51.5421 27.6011C51.3131 27.3479 51.0854 27.0943 50.8565 26.8413L55.5441 22.6004C55.875 22.7256 56.2181 22.8493 56.6044 22.9042C56.8094 22.9334 57.8614 23.0458 58.4082 22.4099C58.8256 21.9242 58.743 21.2785 58.6822 20.8073C58.6771 20.7678 58.6731 20.7333 58.6689 20.7005C58.6211 20.3075 58.4346 19.981 58.24 19.6871C57.5536 18.6502 56.9117 17.702 56.279 16.7866C56.2324 16.72 56.1813 16.656 56.1227 16.5913C56.0154 16.4726 55.9092 16.3816 55.8242 16.3082C55.7969 16.2838 55.7701 16.2616 55.75 16.2431L55.5808 16.0787C55.3425 15.8472 54.9657 15.8404 54.7189 16.0637L54.5441 16.2219L47.2265 22.842C46.7201 22.2579 46.1751 21.6441 45.5453 20.948C44.8239 20.1506 44.0846 19.3484 43.3695 18.573C42.6534 17.7965 41.9148 16.9971 41.1969 16.2035C39.6117 14.4512 37.76 12.3405 36.046 9.97241L35.8298 9.67519C35.8163 9.65652 35.8019 9.6387 35.7867 9.6219C35.6642 9.48647 35.4879 9.40997 35.3033 9.41454C35.0956 9.41985 34.9038 9.52732 34.791 9.70142L34.5907 10.01Z" fill="black"/>
<path d="M29.1825 37.3542C29.6043 36.9109 29.9677 36.5288 30.3004 36.1017C33.7158 31.7155 35.9083 26.6504 37.0027 20.6175L37.0132 20.5615C37.0555 20.3319 37.1143 20.0155 37.0412 19.6735C36.9938 19.4557 36.8822 19.244 36.7177 19.0622C36.5353 18.8606 36.3136 18.7244 36.0762 18.6688C35.5521 18.5442 35.0008 18.8388 34.7489 19.1786C34.5665 19.4243 34.4489 19.6794 34.346 19.904C34.3228 19.9535 34.3004 20.0021 34.2775 20.05C31.8426 25.1461 28.7099 29.608 24.9641 33.3133C24.1979 34.0712 23.5727 34.7971 23.0498 35.5346C22.322 36.5623 22.329 37.6656 23.0699 38.4847C23.3087 38.7486 23.6174 38.977 23.9862 39.1649C24.6013 39.4783 25.5023 39.5252 26.2267 39.283C26.8701 39.0677 27.4338 38.7399 27.8862 38.477C28.0265 38.3953 28.159 38.3182 28.2627 38.2637L28.3018 38.243C28.3653 38.2098 28.4234 38.1651 28.4721 38.1118L28.5022 38.0792C28.7478 37.8114 28.9691 37.5787 29.1825 37.3542Z" fill="black"/>
</g>
<defs>
<filter id="filter0_d_3628_1468" x="0.683594" y="2.41406" width="69.4961" height="70.6016" filterUnits="userSpaceOnUse" color-interpolation-filters="sRGB">
<feFlood flood-opacity="0" result="BackgroundImageFix"/>
<feColorMatrix in="SourceAlpha" type="matrix" values="0 0 0 0 0 0 0 0 0 0 0 0 0 0 0 0 0 0 127 0" result="hardAlpha"/>
<feOffset/>
<feGaussianBlur stdDeviation="3.5"/>
<feComposite in2="hardAlpha" operator="out"/>
<feColorMatrix type="matrix" values="0 0 0 0 0.94902 0 0 0 0 0.866667 0 0 0 0 0.486275 0 0 0 1 0"/>
<feBlend mode="normal" in2="BackgroundImageFix" result="effect1_dropShadow_3628_1468"/>
<feBlend mode="normal" in="SourceGraphic" in2="effect1_dropShadow_3628_1468" result="shape"/>
</filter>
</defs>
</svg>

<svg xmlns="http://www.w3.org/2000/svg" width="74" height="74" fill="none" viewBox="0 0 74 74"><g fill="#000" filter="url(#a)"><path d="M9.008 29.18 7.9 30.856l-.112.17a.63.63 0 0 0 .076.788l.142.146c.471.482.944.954 1.401 1.41.986.986 1.918 1.917 2.81 2.9 4.87 5.365 9.69 10.692 13.347 14.733l5.641 6.236.174.192.088.097 5.726 6.331.963 1.065.136.154q.08.093.16.182c.154.17.285.296.422.407.367.295.79.408 1.194.318.238-.052.682-.23.975-.828.15-.307.237-.645.244-.953l.02-.84c.031-1.26.064-2.561.045-3.849-.007-.43-.06-.923-.407-1.307-.396-.437-.965-.498-1.468-.5-.845-.004-1.753.01-2.67.142-.499.072-.757-.023-1.104-.407l-.028-.032a406 406 0 0 0-3.46-3.867q-.984-1.088-1.97-2.172l-.008-.009-.008-.008-1.766-1.947c.39-.1.781-.198 1.164-.294 1.106-.277 2.243-.562 3.36-.878 5.926-1.683 11.574-3.936 16.795-6.12l.143-.06c.927-.391 1.182-.446 1.554-.076.533.53 1.48.448 1.952.273.478-.179.795-.561.892-1.078.065-.35.016-.685-.01-.865a6.4 6.4 0 0 0-.332-1.35c-.43-1.131-.896-2.265-1.308-3.265a3 3 0 0 0-.3-.538l-.113-.177-.132-.219a.63.63 0 0 0-.393-.288.63.63 0 0 0-.48.079l-.217.135q-.435.271-.839.53c-.566.36-1.101.701-1.646 1.014-6.607 3.792-13.86 7.155-22.175 10.28-.37.14-.436.137-.738-.197l-.014-.015a1497 1497 0 0 0-5.427-6.024l-.774-.855-.773-.855a1640 1640 0 0 1-4.9-5.435c-.668-.745-1.31-1.556-1.93-2.34-.304-.384-.618-.782-.935-1.17a10 10 0 0 0-.305-.345l-.183-.2-.218-.241a.63.63 0 0 0-.994.076zM34.59 10.01l-.195.301-.937 1.446-.112.172a.63.63 0 0 0 .062.765l.021.023.144.145q.427.424.834.82c.564.55 1.095 1.067 1.587 1.61 5.086 5.61 10.195 11.257 14.585 16.11l2.659 2.939 2.659 2.939 3.697 4.085q.074.081.143.162l.155.173c.15.165.331.358.547.539.634.53 1.177.52 1.523.418.351-.104.824-.404 1.08-1.24a2.8 2.8 0 0 0 .136-.877l-.014-.736v-.01a74 74 0 0 0-.11-3.23c-.027-.415-.082-.89-.422-1.265-.394-.436-.949-.491-1.437-.51a23 23 0 0 0-2.641.047c-.361.028-.521-.032-.745-.28l-.015-.016a517 517 0 0 0-3.491-3.891l-1.366-1.509-.015-.016-.015-.016-1.365-1.507-.686-.76 4.688-4.24c.331.125.674.248 1.06.303.205.03 1.257.142 1.804-.494.418-.486.335-1.131.274-1.603l-.013-.106c-.048-.393-.234-.72-.429-1.014a173 173 0 0 0-1.961-2.9 2 2 0 0 0-.156-.196 3 3 0 0 0-.299-.283l-.074-.065-.17-.164a.63.63 0 0 0-.861-.015l-.175.158-7.317 6.62a119 119 0 0 0-1.682-1.894c-.721-.797-1.46-1.6-2.175-2.375a302 302 0 0 1-2.173-2.37c-1.585-1.752-3.437-3.862-5.151-6.23l-.216-.298a.63.63 0 0 0-.527-.26.63.63 0 0 0-.512.286z"/><path d="M29.183 37.354c.421-.443.785-.825 1.117-1.252 3.416-4.386 5.608-9.452 6.703-15.484l.01-.056c.043-.23.101-.547.028-.889a1.35 1.35 0 0 0-.323-.61 1.26 1.26 0 0 0-.642-.394c-.524-.125-1.075.17-1.327.51-.183.245-.3.5-.403.725l-.068.146c-2.435 5.096-5.568 9.558-9.314 13.263a17 17 0 0 0-1.914 2.222c-.728 1.027-.721 2.13.02 2.95q.36.397.916.68c.615.313 1.516.36 2.24.118.644-.215 1.208-.543 1.66-.806.14-.082.273-.159.377-.213l.039-.021a.6.6 0 0 0 .17-.131l.03-.033c.246-.268.467-.5.68-.725"/></g><defs><filter id="a" width="69.496" height="70.602" x=".684" y="2.414" color-interpolation-filters="sRGB" filterUnits="userSpaceOnUse"><feFlood flood-opacity="0" result="BackgroundImageFix"/><feColorMatrix in="SourceAlpha" result="hardAlpha" values="0 0 0 0 0 0 0 0 0 0 0 0 0 0 0 0 0 0 127 0"/><feOffset/><feGaussianBlur stdDeviation="3.5"/><feComposite in2="hardAlpha" operator="out"/><feColorMatrix values="0 0 0 0 0.94902 0 0 0 0 0.866667 0 0 0 0 0.486275 0 0 0 1 0"/><feBlend in2="BackgroundImageFix" result="effect1_dropShadow_3628_1468"/><feBlend in="SourceGraphic" in2="effect1_dropShadow_3628_1468" result="shape"/></filter></defs></svg>
